svgs/1F393.svg

<svg xmlns="http://www.w3.org/2000/svg" xmlns:xlink="http://www.w3.org/1999/xlink" preserveAspectRatio="none" viewBox="0 0 72 72"><defs><path id="a" fill="#2F2F2F" d="M108.95 87.3V46.75H17.4V87.3h91.55z"/><path id="b" fill="#006CA2" d="M108.95 65.75L90 74.25q-3.55 1.7-5.45 2.6-6.35 3-8.85 3.95-6 2.3-11.9 2.3-8.15 0-17.1-4.25-9.2-4.4-29.3-13.25v7.75q0 3.45-.65 11.9-.15 7.65 2.2 12.05 2.6 4.9 8.85 6.85 11.35 3.5 27.55 3.8 12.05.2 28.1-1.4 11.7-1.2 17-3.45 8.35-3.55 8.5-11.25v-26.1z"/><path id="c" fill="#006CA2" d="M126.05 44.95q-1.3-1.3-4.1-2.85t-7.25-3.45q-4.95-2.1-7.4-3.2l-28-12.65q-5.15-2.35-8.4-3.4-4.7-1.5-8.65-1.5-3.45 0-6.8 1.1-7.4 2.6-16.75 6.85-3.05 1.4-16.3 7.75-12.25 5.85-14.1 6.7-.4.2-2.4 1.3-3.1 1.95-4.5 4-.45.55-.85 1.5-1.35 3.45 2.2 6.2 1.55 1.2 6.5 3.35l8.15 3.55q18.35 7.9 31.45 14.15 7.9 3.75 14.95 3.75 5.05 0 10.1-1.9 2.65-1.05 7.05-3.2 5.1-2.45 7-3.3l34.4-15.45q2.45-1.1 3.35-1.7 1.75-1.25 2-3 .45-2.45-1.65-4.6z"/><path id="d" fill="#ED6C30" d="M121.5 110.45q2.65.25 4.6-.15-.3-1.95-.35-3.9v-1.55l-12.7-1q-.35.9-.4 3.1 3.55 3.05 8.85 3.5z"/><path id="e" fill="#F79329" d="M117.15 55.05V66.6h.05v1.55q.05 2.2-.1 13.25v14.55q-1.3.5-2.05 1.7-.65 1.05-1.35 3.45-.2.6-.65 2.75l.05.45q.15.5.65.75 3.45 1.45 8.75.9 1.05-.1 1.85-.35 1.2-.4 1.4-.75.1-.2.05-.8-.05-.6-.05-.75l-.2-2.05q-.4-2.7-2.05-4.45-.65-.55-1.15-.75v-41h-5.2z"/><path id="f" fill="#F79329" d="M121.95 123.75q.05.2 0 .5.05.25.25.4.4.25 1.05.15.6-.1.95-.4.6-.6 1.2-2 1.25-3.1 1.25-7.05-.05-2.5-.4-5.05l-.4-2.1q-2.5.8-6.6.55-3.05-.2-5.15-1l-1.45-.8-.75 4.2q-.55 2.5-1.55 4.65-.7 1.35-1.95 2.85-1.8 2.15-1.35 3.45.35 1.2 1.5 1.3.45.05 1-.4.6-.45.9-.45.45-.05.4.4-.05.25-.15.7.35 1.3 2.45 1.55.85.1 1.45-.45.7-.7.85-.7.4 0 .4.2l.1.55q.8 1.4 3.65.6.5-.15.75-.5.35-.5.55-.8.9-1.25 1.05-.35z"/><path id="g" fill="#F79329" d="M119.6 57.15l.5.05q.8 0 1.45-.5.6-.45.8-1.25.2-.95-.35-1.7-.5-.8-1.4-1L63.9 40.4q-.9-.2-1.7.3-.75.5-1 1.45-.2.9.35 1.7.5.8 1.4 1l56.65 12.3z"/></defs><use transform="scale(.5625)" xlink:href="#a"/><use transform="scale(.5625)" xlink:href="#b"/><use transform="scale(.5625)" xlink:href="#c"/><use transform="scale(.5625)" xlink:href="#d"/><use transform="scale(.5625)" xlink:href="#e"/><use transform="scale(.5625)" xlink:href="#f"/><use transform="scale(.5625)" xlink:href="#g"/></svg>

<svg xmlns="http://www.w3.org/2000/svg" version="1.1" xmlns:xlink="http://www.w3.org/1999/xlink" preserveAspectRatio="none" x="0px" y="0px" width="72px" height="72px" viewBox="0 0 72 72">
<defs>
<g id="Layer0_0_MEMBER_0_MEMBER_0_FILL">
<path fill="#2F2F2F" stroke="none" d="
M 108.95 87.3
L 108.95 46.75 17.4 46.75 17.4 87.3 108.95 87.3 Z"/>
</g>

<g id="Layer0_0_MEMBER_0_MEMBER_1_MEMBER_0_FILL">
<path fill="#006CA2" stroke="none" d="
M 108.95 65.75
L 90 74.25
Q 86.45 75.95 84.55 76.85 78.2 79.85 75.7 80.8 69.7 83.1 63.8 83.1 55.65 83.1 46.7 78.85 37.5 74.45 17.4 65.6
L 17.4 73.35
Q 17.4 76.8 16.75 85.25 16.6 92.9 18.95 97.3 21.55 102.2 27.8 104.15 39.15 107.65 55.35 107.95 67.4 108.15 83.45 106.55 95.15 105.35 100.45 103.1 108.8 99.55 108.95 91.85
L 108.95 65.75 Z"/>
</g>

<g id="Layer0_0_MEMBER_0_MEMBER_1_MEMBER_1_FILL">
<path fill="#006CA2" stroke="none" d="
M 126.05 44.95
Q 124.75 43.65 121.95 42.1 119.15 40.55 114.7 38.65 109.75 36.55 107.3 35.45
L 79.3 22.8
Q 74.15 20.45 70.9 19.4 66.2 17.9 62.25 17.9 58.8 17.9 55.45 19 48.05 21.6 38.7 25.85 35.65 27.25 22.4 33.6 10.15 39.45 8.3 40.3 7.9 40.5 5.9 41.6 2.8 43.55 1.4 45.6 0.95 46.15 0.55 47.1 -0.8 50.55 2.75 53.3 4.3 54.5 9.25 56.65
L 17.4 60.2
Q 35.75 68.1 48.85 74.35 56.75 78.1 63.8 78.1 68.85 78.1 73.9 76.2 76.55 75.15 80.95 73 86.05 70.55 87.95 69.7
L 122.35 54.25
Q 124.8 53.15 125.7 52.55 127.45 51.3 127.7 49.55 128.15 47.1 126.05 44.95 Z"/>
</g>

<g id="Layer0_0_MEMBER_1_FILL">
<path fill="#ED6C30" stroke="none" d="
M 121.5 110.45
Q 124.15 110.7 126.1 110.3 125.8 108.35 125.75 106.4
L 125.75 104.85 113.05 103.85
Q 112.7 104.75 112.65 106.95 116.2 110 121.5 110.45 Z"/>
</g>

<g id="Layer0_0_MEMBER_2_FILL">
<path fill="#F79329" stroke="none" d="
M 117.15 55.05
L 117.15 66.6 117.2 66.6 117.2 68.15
Q 117.25 70.35 117.1 81.4
L 117.1 95.95
Q 115.8 96.45 115.05 97.65 114.4 98.7 113.7 101.1 113.5 101.7 113.05 103.85
L 113.1 104.3
Q 113.25 104.8 113.75 105.05 117.2 106.5 122.5 105.95 123.55 105.85 124.35 105.6 125.55 105.2 125.75 104.85 125.85 104.65 125.8 104.05 125.75 103.45 125.75 103.3
L 125.55 101.25
Q 125.15 98.55 123.5 96.8 122.85 96.25 122.35 96.05
L 122.35 55.05 117.15 55.05 Z"/>
</g>

<g id="Layer0_0_MEMBER_3_FILL">
<path fill="#F79329" stroke="none" d="
M 121.95 123.75
Q 122 123.95 121.95 124.25 122 124.5 122.2 124.65 122.6 124.9 123.25 124.8 123.85 124.7 124.2 124.4 124.8 123.8 125.4 122.4 126.65 119.3 126.65 115.35 126.6 112.85 126.25 110.3
L 125.85 108.2
Q 123.35 109 119.25 108.75 116.2 108.55 114.1 107.75
L 112.65 106.95 111.9 111.15
Q 111.35 113.65 110.35 115.8 109.65 117.15 108.4 118.65 106.6 120.8 107.05 122.1 107.4 123.3 108.55 123.4 109 123.45 109.55 123 110.15 122.55 110.45 122.55 110.9 122.5 110.85 122.95 110.8 123.2 110.7 123.65 111.05 124.95 113.15 125.2 114 125.3 114.6 124.75 115.3 124.05 115.45 124.05 115.85 124.05 115.85 124.25
L 115.95 124.8
Q 116.75 126.2 119.6 125.4 120.1 125.25 120.35 124.9 120.7 124.4 120.9 124.1 121.8 122.85 121.95 123.75 Z"/>
</g>

<g id="Layer0_0_MEMBER_4_FILL">
<path fill="#F79329" stroke="none" d="
M 119.6 57.15
L 120.1 57.2
Q 120.9 57.2 121.55 56.7 122.15 56.25 122.35 55.45 122.55 54.5 122 53.75 121.5 52.95 120.6 52.75
L 63.9 40.4
Q 63 40.2 62.2 40.7 61.45 41.2 61.2 42.15 61 43.05 61.55 43.85 62.05 44.65 62.95 44.85
L 119.6 57.15 Z"/>
</g>
</defs>

<g id="Layer_1">
<g transform="matrix( 0.5625, 0, 0, 0.5625, 0,0) ">
<use xlink:href="#Layer0_0_MEMBER_0_MEMBER_0_FILL"/>
</g>

<g transform="matrix( 0.5625, 0, 0, 0.5625, 0,0) ">
<use xlink:href="#Layer0_0_MEMBER_0_MEMBER_1_MEMBER_0_FILL"/>
</g>

<g transform="matrix( 0.5625, 0, 0, 0.5625, 0,0) ">
<use xlink:href="#Layer0_0_MEMBER_0_MEMBER_1_MEMBER_1_FILL"/>
</g>

<g transform="matrix( 0.5625, 0, 0, 0.5625, 0,0) ">
<use xlink:href="#Layer0_0_MEMBER_1_FILL"/>
</g>

<g transform="matrix( 0.5625, 0, 0, 0.5625, 0,0) ">
<use xlink:href="#Layer0_0_MEMBER_2_FILL"/>
</g>

<g transform="matrix( 0.5625, 0, 0, 0.5625, 0,0) ">
<use xlink:href="#Layer0_0_MEMBER_3_FILL"/>
</g>

<g transform="matrix( 0.5625, 0, 0, 0.5625, 0,0) ">
<use xlink:href="#Layer0_0_MEMBER_4_FILL"/>
</g>
</g>
</svg>
